X: 29186
T: New Century, The
R: hornpipe
M: 4/4
K: Gmajor
|:(3ABc|dBGF GBdB|cA=FE =FG (3ABc|BAGF GB (3def|gage ga (3gfe|dedB GF (3GAB|cdcA =F2GA|(3BAG gB fBeG|(3ABA GF G2:|
|:G2|(3ABc de =fdcA|BDFA GFGA|Bcde =fdge|(3ag=f dc d2 (3def|gdBG ecAB|GFGA (3BAG EG|FDdB cedB|(3ABA GF G2:|

